assets/report/china-popculture/cross.svg

<svg fill="none" height="19" viewBox="0 0 19 19" width="19" xmlns="http://www.w3.org/2000/svg"><path d="m9.38867 18.4697c4.82523 0 8.81543-3.9902 8.81543-8.8154 0-4.83399-3.9902-8.815433-8.82422-8.815433-4.82519 0-8.806638 3.981443-8.806638 8.815433 0 4.8252 3.990238 8.8154 8.815428 8.8154zm-3.1289-5.1152c-.31641 0-.57129-.2461-.57129-.5625 0-.1582.06152-.29.17578-.4043l2.71582-2.72461-2.71582-2.72461c-.11426-.11426-.17578-.2461-.17578-.4043 0-.30762.25488-.55371.57129-.55371.1582 0 .29003.05273.40429.17578l2.71582 2.71582 2.74222-2.72461c.123-.12305.2461-.17578.4043-.17578.3076 0 .5625.24609.5625.55371 0 .1582-.0528.28125-.167.41309l-2.7334 2.72461 2.7246 2.71581c.1142.1231.167.2549.167.4131 0 .3164-.2461.5625-.5713.5625-.1582 0-.29-.0615-.4131-.1758l-2.71582-2.7158-2.69824 2.7158c-.12305.1231-.26367.1758-.42187.1758z" fill="#111" opacity=".2"/></svg>

<svg width="19" height="19" viewBox="0 0 19 19" fill="none" xmlns="http://www.w3.org/2000/svg">
<path opacity="0.2" d="M9.38867 18.4697C14.2139 18.4697 18.2041 14.4795 18.2041 9.6543C18.2041 4.82031 14.2139 0.838867 9.37988 0.838867C4.55469 0.838867 0.573242 4.82031 0.573242 9.6543C0.573242 14.4795 4.56348 18.4697 9.38867 18.4697ZM6.25977 13.3545C5.94336 13.3545 5.68848 13.1084 5.68848 12.792C5.68848 12.6338 5.75 12.502 5.86426 12.3877L8.58008 9.66309L5.86426 6.93848C5.75 6.82422 5.68848 6.69238 5.68848 6.53418C5.68848 6.22656 5.94336 5.98047 6.25977 5.98047C6.41797 5.98047 6.5498 6.0332 6.66406 6.15625L9.37988 8.87207L12.1221 6.14746C12.2451 6.02441 12.3682 5.97168 12.5264 5.97168C12.834 5.97168 13.0889 6.21777 13.0889 6.52539C13.0889 6.68359 13.0361 6.80664 12.9219 6.93848L10.1885 9.66309L12.9131 12.3789C13.0273 12.502 13.0801 12.6338 13.0801 12.792C13.0801 13.1084 12.834 13.3545 12.5088 13.3545C12.3506 13.3545 12.2188 13.293 12.0957 13.1787L9.37988 10.4629L6.68164 13.1787C6.55859 13.3018 6.41797 13.3545 6.25977 13.3545Z" fill="#111111"/>
</svg>
